material/.icons/material/filmstrip-box.svg

<svg xmlns="http://www.w3.org/2000/svg" viewBox="0 0 24 24"><path d="M19 3c1.1 0 2 .9 2 2v14c0 1.1-.9 2-2 2H5c-1.1 0-2-.9-2-2V5c0-1.1.9-2 2-2h14M7 18v-2H5v2h2m0-5v-2H5v2h2m0-5V6H5v2h2m12 10v-2h-2v2h2m0-5v-2h-2v2h2m0-5V6h-2v2h2z"/></svg>

<?xml version="1.0" encoding="UTF-8"?><!DOCTYPE svg PUBLIC "-//W3C//DTD SVG 1.1//EN" "http://www.w3.org/Graphics/SVG/1.1/DTD/svg11.dtd"><svg xmlns="http://www.w3.org/2000/svg" xmlns:xlink="http://www.w3.org/1999/xlink" version="1.1" id="mdi-filmstrip-box" width="24" height="24" viewBox="0 0 24 24"><path d="M19 3C20.1 3 21 3.9 21 5V19C21 20.1 20.1 21 19 21H5C3.9 21 3 20.1 3 19V5C3 3.9 3.9 3 5 3H19M7 18V16H5V18H7M7 13V11H5V13H7M7 8V6H5V8H7M19 18V16H17V18H19M19 13V11H17V13H19M19 8V6H17V8H19Z" /></svg>
